X: 2
T: Wild One
C:Mary Pantaleone
R:jig
M:6/8
L:1/8
Z:abc by Debby Knight
K:Dm
A, \
|    "Dm"DEF DGD | "F"ADc AGF |\
[1,3 "Bb"DEF DGD | "Am"ADF EDC :|\
[2,4 "Bb"dcA "Dm"GAF | "Am"EDC "Dm"D2 :|
|: A \
|    "Dm"d2c A2c | "F"dcA cdc |\
[1,3 "Bb"d2c A2G | "Am"FGE FED :|\
[2,4 "Bb"dcA "Dm"cdF | "Am"EDC "Dm"D2 :|


